icons/DoubleArrowCounterClockwise.svg

<svg width="24" height="24" viewBox="0 0 24 24" fill="none" xmlns="http://www.w3.org/2000/svg">
<path fill-rule="evenodd" clip-rule="evenodd" d="M5.97185,7.97212c-0.79664,1.19226 -1.22185,2.59398 -1.22185,4.02788v1.1893l1.71967,-1.7196c0.29289,-0.2929 0.76777,-0.2929 1.06066,0c0.29289,0.2929 0.29289,0.7677 0,1.0606l-3,3c-0.29289,0.2929 -0.76777,0.2929 -1.06066,0l-3,-3c-0.29289,-0.2929 -0.29289,-0.7677 0,-1.0606c0.29289,-0.2929 0.76777,-0.2929 1.06066,0l1.71967,1.7196v-1.1893c0,-1.7306 0.51318,-3.42231 1.47464,-4.86124c0.96146,-1.43893 2.32803,-2.56044 3.92688,-3.2227c1.59888,-0.66227 3.35818,-0.83555 5.05548,-0.49793c1.6974,0.33762 3.2565,1.17098 4.4802,2.39469c0.2929,0.29289 0.2929,0.76777 0,1.06066c-0.2929,0.29289 -0.7678,0.29289 -1.0607,0c-1.0139,-1.01393 -2.3057,-1.70443 -3.7121,-1.98417c-1.4064,-0.27974 -2.8641,-0.13617 -4.18886,0.41257c-1.32476,0.54873 -2.45705,1.47798 -3.25369,2.67024zM20.75,10.8107v1.1893c0,1.7306 -0.5132,3.4223 -1.4746,4.8612c-0.9615,1.439 -2.3281,2.5605 -3.9269,3.2227c-1.5989,0.6623 -3.3582,0.8356 -5.0555,0.498c-1.69737,-0.3376 -3.25647,-1.171 -4.48018,-2.3947c-0.2929,-0.2929 -0.29289,-0.7678 0,-1.0607c0.29289,-0.2929 0.76777,-0.2929 1.06066,0c1.01393,1.014 2.30576,1.7045 3.71212,1.9842c1.4064,0.2797 2.8641,0.1362 4.1889,-0.4126c1.3247,-0.5487 2.457,-1.478 3.2537,-2.6702c0.7966,-1.1923 1.2218,-2.594 1.2218,-4.0279v-1.1893l-1.7197,1.7196c-0.2929,0.2929 -0.7677,0.2929 -1.0606,0c-0.2929,-0.2929 -0.2929,-0.7677 0,-1.0606l3,-3.00003c0.2929,-0.29289 0.7677,-0.29289 1.0606,0l3,3.00003c0.2929,0.2929 0.2929,0.7677 0,1.0606c-0.2929,0.2929 -0.7677,0.2929 -1.0606,0z" fill="#002B51"/>
</svg>

<svg width="24" height="24" viewBox="0 0 24 24" fill="none" xmlns="http://www.w3.org/2000/svg">
<path fill-rule="evenodd" clip-rule="evenodd" d="M5.97185 7.97212C5.17521 9.16438 4.75 10.5661 4.75 12V13.1893L6.46967 11.4697C6.76256 11.1768 7.23744 11.1768 7.53033 11.4697C7.82322 11.7626 7.82322 12.2374 7.53033 12.5303L4.53033 15.5303C4.23744 15.8232 3.76256 15.8232 3.46967 15.5303L0.46967 12.5303C0.176777 12.2374 0.176777 11.7626 0.46967 11.4697C0.762563 11.1768 1.23744 11.1768 1.53033 11.4697L3.25 13.1893V12C3.25 10.2694 3.76318 8.57769 4.72464 7.13876C5.6861 5.69983 7.05267 4.57832 8.65152 3.91606C10.2504 3.25379 12.0097 3.08051 13.707 3.41813C15.4044 3.75575 16.9635 4.58911 18.1872 5.81282C18.4801 6.10571 18.4801 6.58059 18.1872 6.87348C17.8943 7.16637 17.4194 7.16637 17.1265 6.87348C16.1126 5.85955 14.8208 5.16905 13.4144 4.88931C12.008 4.60957 10.5503 4.75314 9.22554 5.30188C7.90078 5.85061 6.76849 6.77986 5.97185 7.97212ZM22.4697 12.5303C22.7626 12.8232 23.2374 12.8232 23.5303 12.5303C23.8232 12.2374 23.8232 11.7626 23.5303 11.4697L20.5303 8.46967C20.2374 8.17678 19.7626 8.17678 19.4697 8.46967L16.4697 11.4697C16.1768 11.7626 16.1768 12.2374 16.4697 12.5303C16.7626 12.8232 17.2374 12.8232 17.5303 12.5303L19.25 10.8107V12C19.25 13.4339 18.8248 14.8356 18.0282 16.0279C17.2315 17.2201 16.0992 18.1494 14.7745 18.6981C13.4497 19.2469 11.992 19.3904 10.5856 19.1107C9.17924 18.831 7.88741 18.1405 6.87348 17.1265C6.58059 16.8336 6.10571 16.8336 5.81282 17.1265C5.51993 17.4194 5.51992 17.8943 5.81282 18.1872C7.03653 19.4109 8.59563 20.2443 10.293 20.5819C11.9903 20.9195 13.7496 20.7462 15.3485 20.0839C16.9473 19.4217 18.3139 18.3002 19.2754 16.8612C20.2368 15.4223 20.75 13.7306 20.75 12V10.8107L22.4697 12.5303Z" fill="#002B51"/>
</svg>
